X: 31297
T: Paddy Kelly
R: jig
M: 6/8
K: Eminor
B,|EB,E GFE|BEF GFE|DA,D FED|AFD FED|
EB,E GFE|BEF GFE|BGB AFA|GED E2:|B|
ede B2B|eBe g2e|fdd add|fef a2d|
ede B2B|eBe g2e|fdB AFA|GED E2:|

